X: 71
T:Scotland the Brave
M:2/4
L:1/8
Q:185
S:AB
R:Reel
K:G
"G"G2 G&gt;A|BG Bd|g2 g&gt;g|gd BG|"C"c2 ec|"G"Bd BG|"D7"A2 d&gt;d|dc BA|!
"G"G2 G&gt;A|BG Bd|g2 g&gt;g|gd BG|"C"c2 ec|"G"Bd BG|"D"A2 GF|"G"G2 z2|!
"D"a2 a&gt;a|af df|"G"g2 b&gt;a|ge d2|"Em"g2 gg|"D"f2 gf|"C"e&gt;g fe|"D"d&gt;e d/2c
/2B/2A/2|!
"G"G2 G&gt;A|BG Bd|g2 g&gt;g|gd BG|"C"c2 ec|"G"Bd BG|"D"A2 GF|"G"G4||

